brandFactory_export/2.Regular/Telefonía fija_Teléfono_Llamar_2Regular.svg

<?xml version="1.0" encoding="UTF-8"?>
<svg width="24px" height="24px" viewBox="0 0 24 24" version="1.1" xmlns="http://www.w3.org/2000/svg" xmlns:xlink="http://www.w3.org/1999/xlink">
    <title>2.Regular/Telefonía fija_Teléfono_Llamar_2Regular</title>
    <g id="Symbols" stroke="none" stroke-width="1" fill="none" fill-rule="evenodd">
        <g id="2.Regular/Telefonía-fija_Teléfono_Llamar_2Regular" fill="#5CB615" fill-rule="nonzero">
            <path d="M18.5579832,23.6168067 C17.5193277,23.6168067 16.3294118,23.3613445 15.0487395,22.8504202 C12.4302521,21.805042 9.56302521,19.7714286 6.75966387,16.9680672 L6.75294118,16.9613445 L6.66218487,16.8739496 L6.65546218,16.8672269 C3.85210084,14.0638655 1.81848739,11.1966387 0.773109244,8.57815126 C-0.221848739,6.07058824 -0.245378151,3.92941176 0.709243697,2.54789916 L0.729411765,2.51764706 L0.742857143,2.49747899 C0.860504202,2.33613445 1.21008403,1.8487395 1.57647059,1.49915966 C2.61848739,0.504201681 3.68403361,0.0100840336 4.73613445,0.0268907563 C5.7512605,0.0470588235 6.75630252,0.544537815 7.7210084,1.5092437 C8.08403361,1.86554622 8.40336134,2.26890756 8.66554622,2.7092437 C9.18319328,3.54285714 9.37142857,4.40336134 9.22352941,5.26722689 C9.07563025,6.13109244 8.59495798,6.97478992 7.78823529,7.78151261 C7.6,7.9697479 7.40168067,8.14789916 7.19327731,8.31260504 C7.11596639,8.45378151 7.16302521,8.89747899 7.78823529,9.81176471 C8.51092437,10.8672269 9.7210084,12.1142857 10.5680672,12.9613445 L10.6689076,13.0621849 C11.5159664,13.9092437 12.7630252,15.1159664 13.8184874,15.8420168 C14.7294118,16.4672269 15.1764706,16.5142857 15.3176471,16.4369748 C15.4823529,16.2285714 15.6571429,16.0302521 15.8487395,15.8420168 C16.6554622,15.0352941 17.4991597,14.5546218 18.3630252,14.4067227 C19.2268908,14.2588235 20.087395,14.4470588 20.9210084,14.9647059 C21.3579832,15.2268908 21.7613445,15.5428571 22.1210084,15.9092437 C23.0857143,16.8739496 23.5831933,17.8756303 23.6033613,18.8941176 C23.6235294,19.9462185 23.1294118,21.0117647 22.1310924,22.0537815 C21.7815126,22.4201681 21.2941176,22.7697479 21.1327731,22.887395 L21.112605,22.9008403 C21.102521,22.907563 21.092437,22.9142857 21.0823529,22.9243697 C20.4033613,23.3848739 19.5462185,23.6168067 18.5579832,23.6168067 Z M7.71092437,16.0235294 C10.3831933,18.6957983 13.092437,20.6252101 15.5428571,21.6033613 C17.5798319,22.4134454 19.3142857,22.4907563 20.302521,21.8184874 L20.3428571,21.7915966 C20.7058824,21.5294118 20.9781513,21.3042017 21.1529412,21.1226891 C22.6184874,19.589916 22.6218487,18.312605 21.1630252,16.8571429 C20.8840336,16.5714286 20.5714286,16.3260504 20.2319328,16.1210084 L20.2117647,16.1109244 C19.6537815,15.7647059 19.1193277,15.6403361 18.5815126,15.7310924 C18,15.8285714 17.3983193,16.1848739 16.7932773,16.789916 C16.6218487,16.9579832 16.4638655,17.1361345 16.3193277,17.3277311 C16.2957983,17.3546218 16.2722689,17.3815126 16.2487395,17.405042 C15.9630252,17.6705882 15.4487395,17.9428571 14.6352941,17.7344538 C14.1747899,17.6168067 13.6571429,17.3613445 13.0554622,16.9478992 C11.9092437,16.1613445 10.6016807,14.8941176 9.71764706,14.010084 L9.61680672,13.9092437 C8.73277311,13.0252101 7.46554622,11.7176471 6.6789916,10.5680672 C6.26554622,9.96638655 6.00672269,9.4487395 5.89243697,8.98823529 C5.68739496,8.17478992 5.95966387,7.6605042 6.22184874,7.37478992 C6.24537815,7.34789916 6.27226891,7.32436975 6.29915966,7.30420168 C6.4907563,7.15966387 6.66890756,7.00168067 6.83697479,6.8302521 C7.44201681,6.22521008 7.79831933,5.62352941 7.89579832,5.04201681 C7.98655462,4.50084034 7.86218487,3.9697479 7.51596639,3.41176471 L7.50588235,3.39159664 C7.30084034,3.05210084 7.05546218,2.73613445 6.7697479,2.4605042 C5.31428571,1.00504202 4.03697479,1.00840336 2.50420168,2.47394958 C2.32268908,2.6487395 2.09747899,2.9210084 1.83529412,3.28403361 L1.80504202,3.32436975 C1.13277311,4.31260504 1.21344538,6.04705882 2.02352941,8.08403361 C3.00168067,10.5344538 4.93109244,13.2436975 7.60336134,15.9159664 L7.65042017,15.9630252 L7.66386555,15.9764706 L7.71092437,16.0235294 Z" id="Telefonía-fija_Teléfono_Llamar_2Regular"></path>
        </g>
    </g>
</svg>

<svg width="24" height="24" viewBox="0 0 24 24" xmlns="http://www.w3.org/2000/svg"><path d="M18.558 23.617c-1.039 0-2.229-.256-3.51-.767-2.618-1.045-5.485-3.079-8.288-5.882l-.007-.007-.09-.087-.008-.007c-2.803-2.803-4.837-5.67-5.882-8.289C-.222 6.071-.245 3.93.71 2.548l.02-.03.014-.02c.118-.162.467-.65.833-.999C2.618.504 3.684.01 4.736.027c1.015.02 2.02.518 2.985 1.482.363.357.682.76.945 1.2.517.834.705 1.694.558 2.558-.148.864-.629 1.708-1.436 2.515a6.848 6.848 0 01-.595.53c-.077.142-.03.585.595 1.5.723 1.055 1.933 2.302 2.78 3.15l.1.1c.848.847 2.095 2.054 3.15 2.78.911.625 1.358.672 1.5.595.164-.208.34-.407.53-.595.807-.807 1.651-1.287 2.515-1.435.864-.148 1.724.04 2.558.558.437.262.84.578 1.2.944.965.965 1.462 1.967 1.482 2.985.02 1.052-.474 2.118-1.472 3.16-.35.366-.837.716-.998.833l-.02.014c-.01.007-.02.013-.03.023-.68.46-1.537.693-2.525.693zM7.711 16.024c2.672 2.672 5.381 4.601 7.832 5.58 2.037.81 3.771.887 4.76.214l.04-.026c.363-.263.635-.488.81-.67 1.465-1.532 1.469-2.81.01-4.265a4.677 4.677 0 00-.931-.736l-.02-.01c-.558-.346-1.093-.47-1.63-.38-.582.098-1.184.454-1.789 1.059a4.8 4.8 0 00-.474.538c-.023.027-.047.054-.07.077-.286.266-.8.538-1.614.33-.46-.118-.978-.374-1.58-.787-1.146-.787-2.453-2.054-3.337-2.938l-.101-.1c-.884-.885-2.151-2.192-2.938-3.342-.413-.602-.672-1.12-.787-1.58-.205-.813.068-1.327.33-1.613a.506.506 0 01.077-.07 4.8 4.8 0 00.538-.475c.605-.605.961-1.206 1.059-1.788.09-.541-.034-1.072-.38-1.63l-.01-.02a4.583 4.583 0 00-.736-.931c-1.456-1.456-2.733-1.453-4.266.013a6.268 6.268 0 00-.669.81l-.03.04c-.672.989-.592 2.723.219 4.76.978 2.45 2.907 5.16 5.58 7.832l.046.047.014.013.047.048z" fill="#5CB615" fill-rule="nonzero"/></svg>
